X:1
T:Op.9,No.2 left hand
T:Chopin
%%score { 1 | 2 }
L:1/8
Q:1/4=48
M:6/8
K:Eb
V:1 treble nm="Piano" snm="Pno."
V:2 bass 
V:1
 B | g2- g/f/ a>gd/e/ | f3- f3 | g2- g/f/ a>gc/d/ | f3 e2 b | c'2 e' _c'2 f' | e'2 b d'_d'c' | %7
 a2 c/e/ Td2 c/d/ | e3- e2 B | g2- g/f/ a>gd/e/ | f3- f3 | g2- g/f/ a>gc/d/ | f3 ed/e/g/b/ | %13
 c'2 e' _c'>ac'/f'/ | e'2 b ^f/g/a/g/d'/c'/ | a2 c/e/ Td2 c/d/ | e3- e3 |] %17
V:2
 z | E,,[G,E][B,EG] E,[G,E][B,EG] | A,,[F,C][A,CF] B,,[F,D][B,DA] | E,[G,E][B,EG] =B,,[G,F][DFG] | %4
 C,[G,E][CEG] C,[G,E][B,_DG] | A,,[A,CE][CEA] A,,[A,_CE][CEA] | G,,[G,B,E][B,EG] =E,,[B,=EG][CEB] | %7
 F,,[F,C][A,CF] B,,[F,D][B,DA] | E,,[G,E][B,EG] E,[G,E][B,EG] | E,,[G,E][B,EG] E,[G,E][B,EG] | %10
 A,,[F,C][A,CF] B,,[F,D][B,DA] | E,[G,E][B,EG] =B,,[G,F][DFG] | C,[G,E][CEG] C,[G,E][B,_DG] | %13
 A,,[A,CE][CEA] A,,[A,_CE][CEA] | G,,[G,E][B,EG] =E,,[B,=EG][CEB] | F,,[F,C][A,CF] B,,[F,D][B,DA] | %16
 E,,[G,E][B,EG] E,[G,E][B,EG] |] %17

